X: 26
T:Maggie in the Wood
M:2/2
L:1/4
R:Polka
K:G
B/2A/2|"G" GDGA |"Em" Beef/2e/2 |"G" dB "Am"AG/2A/2 |"D7" BAAB/2A/2 | "G" GDGA |
"Em" Beef/2e/2 |"G" dB "D7"AB/2A/2|G2 G:|| d|:"C"gfed|"Em"Bdef/2e/2|"G"dB B/2A/2/2G/2A/2|
"G"BAAd|"C"gfed|"Em"Bdef/2e/2 |"G" dB "D7"AB/2A/2|G2 G:|
